icon-themes/breeze_svg/cmd/32/advancedmode.svg

<svg viewBox="0 0 32 32" xmlns="http://www.w3.org/2000/svg"><path d="m17 3.5-.707031.7070312 3.792969 3.7929688h-7.085938v1h7.085938l-3.792969 3.792969.707031.707031 4-4 1-1-1-1zm-6.5 4.5a.5.5 0 0 0 -.5.5.5.5 0 0 0 .5.5.5.5 0 0 0 .5-.5.5.5 0 0 0 -.5-.5zm-5.5 2.5a.5.5 0 0 0 -.5.5.5.5 0 0 0 .5.5.5.5 0 0 0 .5-.5.5.5 0 0 0 -.5-.5zm16.955078 2-8.455078 8.455078 7.044922 7.044922 8.455078-8.455078zm0 1.408203 5.636719 5.636719-7.046875 7.046875-5.636719-5.636719zm-19.455078 2.091797a.5.5 0 0 0 -.5.5.5.5 0 0 0 .5.5.5.5 0 0 0 .5-.5.5.5 0 0 0 -.5-.5zm2.5 6a.5.5 0 0 0 -.5.5.5.5 0 0 0 .5.5.5.5 0 0 0 .5-.5.5.5 0 0 0 -.5-.5zm5.5 2a.5.5 0 0 0 -.5.5.5.5 0 0 0 .5.5.5.5 0 0 0 .5-.5.5.5 0 0 0 -.5-.5z" fill="#4d4d4d"/></svg>

<svg xmlns="http://www.w3.org/2000/svg" viewBox="0 0 32 32">
 <path 
     d="M 17 3.5 L 16.292969 4.2070312 L 20.085938 8 L 13 8 L 13 9 L 20.085938 9 L 16.292969 12.792969 L 17 13.5 L 21 9.5 L 22 8.5 L 21 7.5 L 17 3.5 z M 10.5 8 A 0.5 0.5 0 0 0 10 8.5 A 0.5 0.5 0 0 0 10.5 9 A 0.5 0.5 0 0 0 11 8.5 A 0.5 0.5 0 0 0 10.5 8 z M 5 10.5 A 0.5 0.5 0 0 0 4.5 11 A 0.5 0.5 0 0 0 5 11.5 A 0.5 0.5 0 0 0 5.5 11 A 0.5 0.5 0 0 0 5 10.5 z M 21.955078 12.5 L 13.5 20.955078 L 20.544922 28 L 29 19.544922 L 21.955078 12.5 z M 21.955078 13.908203 L 27.591797 19.544922 L 20.544922 26.591797 L 14.908203 20.955078 L 21.955078 13.908203 z M 2.5 16 A 0.5 0.5 0 0 0 2 16.5 A 0.5 0.5 0 0 0 2.5 17 A 0.5 0.5 0 0 0 3 16.5 A 0.5 0.5 0 0 0 2.5 16 z M 5 22 A 0.5 0.5 0 0 0 4.5 22.5 A 0.5 0.5 0 0 0 5 23 A 0.5 0.5 0 0 0 5.5 22.5 A 0.5 0.5 0 0 0 5 22 z M 10.5 24 A 0.5 0.5 0 0 0 10 24.5 A 0.5 0.5 0 0 0 10.5 25 A 0.5 0.5 0 0 0 11 24.5 A 0.5 0.5 0 0 0 10.5 24 z "
     style="fill:#4d4d4d" 
     />
</svg>
